assets/picture.svg

<svg height="360" viewBox="0 0 640 360" width="640" xmlns="http://www.w3.org/2000/svg"><g fill="none" fill-rule="evenodd"><path d="m0 0h640v360h-640z" fill="#fe5003"/><g fill="#fff" fill-rule="nonzero" transform="translate(140 142)"><path d="m53.58 0h-7.8c-.78 0-1.38.6031746-1.38 1.38730159v40.65396821c0 1.6888889 0 3.3777778.06 5.0666667s.06 3.3174603.06 4.8253968v3.3174604h-.12c-.24-.4825397-.66-1.2063493-1.14-2.0507937s-1.02-1.7492063-1.56-2.7746032c-.54-1.0253968-1.14-1.9904762-1.68-2.9555555-.54-.9650794-1.08-1.8698413-1.62-2.6539683l-26.94-44.15238094c-.24-.42222222-.66-.66349206-1.14-.66349206h-8.94c-.78 0-1.38.6031746-1.38 1.38730159v70.57142861c0 .7841269.6 1.3873015 1.38 1.3873015h7.74c.78 0 1.38-.6031746 1.38-1.3873015v-40.5936508c0-1.568254 0-3.2571429-.06-5.0063492-.06-1.7492064-.06-3.2571429-.06-4.7047619v-3.1968254l.12-.0603175c.6.9650794 1.38 2.3523809 2.46 4.1619048 1.08 1.8698412 2.1 3.4984127 2.94 4.8253968l28.32 45.2984127c.24.4222222.66.663492 1.14.663492h8.22c.78 0 1.38-.6031746 1.38-1.3873015v-70.57142861c-.06-.78412699-.66-1.38730159-1.38-1.38730159z"/><path d="m109.68 18.5174603h-7.74c-.78 0-1.38.6031746-1.38 1.3873016v30.7015873c0 4.4634921-.96 7.9619048-2.94 10.3746032s-4.74 3.6793651-8.28 3.6793651-6.3-1.1460318-8.28-3.3777778-2.94-6.152381-2.94-11.7619048v-29.615873c0-.784127-.6-1.3873016-1.38-1.3873016h-7.74c-.78 0-1.38.6031746-1.38 1.3873016v30.0380952c0 8.1428572 1.68 14.3555556 4.92 18.3968254 3.24 4.0412699 7.98 6.152381 14.34 6.152381 2.7 0 5.4-.5428572 7.86-1.6888889 2.34-1.0253968 4.32-2.6539683 5.76-4.7047619l.06.0603175v3.7396825c0 .784127.6 1.3873016 1.38 1.3873016h7.74c.78 0 1.38-.6031746 1.38-1.3873016v-51.9936508c0-.784127-.6-1.3873016-1.38-1.3873016z"/><path d="m151.32 18.5174603h-11.76c-.06 0-.06-.0603174-.06-.0603174v-16.64761909c0-.78412698-.6-1.38730159-1.38-1.38730159-.12 0-.24 0-.36.06031746l-7.74 2.05079365c-.6.18095238-1.02.72380953-1.02 1.32698413v14.59682544c0 .0603174-.06.0603174-.06.0603174h-6.06c-.78 0-1.38.6031746-1.38 1.3873016v7.0571429c0 .7841269.6 1.3873015 1.32 1.3873015h6.06c.06 0 .06.0603175.06.0603175v31.6666667c0 4.8857143 1.14 8.5650793 3.3 10.9174603 2.16 2.3523809 5.16 3.5587302 9 3.5587302 1.98 0 3.9-.2412699 5.82-.7238096 1.38-.3619047 2.7-.8444444 3.96-1.5079365.42-.2412698.66-.6031746.72-1.0253968l.78-6.2730159c.12-.7238095-.42-1.447619-1.2-1.5079365-.24 0-.42 0-.66.0603175-.42.1809524-.84.3015873-1.32.4825397-1.38.4222222-2.82.663492-4.26.663492-2.04 0-3.48-.4825397-4.38-1.3873016s-1.32-2.6539682-1.32-5.247619v-29.6761905c0-.0603175.06-.0603175.06-.0603175h11.76c.78 0 1.38-.6031746 1.38-1.3873015v-7.0571429c.06-.784127-.54-1.3873016-1.26-1.3873016z"/><path d="m198.42 46.8063492c-1.74-1.5079365-3.66-2.7142857-5.76-3.6793651-2.28-1.0857143-4.92-2.231746-7.98-3.4380952-2.1-.8444445-3.78-1.6285714-5.04-2.2920635-1.08-.5428571-2.1-1.2063492-3.06-1.9301587-.66-.4825397-1.2-1.1460318-1.56-1.8698413-.3-.6031746-.42-1.2666667-.42-1.9301587 0-1.4476191.66-2.8349207 1.8-3.6793651 1.2-.9650794 3.06-1.4476191 5.76-1.4476191 2.52 0 4.98.3619048 7.32 1.1460318 1.92.663492 3.78 1.568254 5.52 2.7142857.66.4222222 1.5.2412698 1.92-.4222222 0 0 0-.0603175.06-.0603175l3.24-5.6698413c.36-.6031746.18-1.3873015-.42-1.8095238-2.28-1.447619-4.74-2.6539682-7.32-3.4984127-3.24-1.0857142-6.6-1.6285714-9.96-1.6285714-2.52 0-4.98.3015873-7.38.9047619-2.1.5428572-4.08 1.4476191-5.88 2.7746032-1.62 1.2063492-2.94 2.7746032-3.78 4.584127-.9 1.9904762-1.38 4.1619047-1.32 6.3333333-.06 1.9301587.24 3.8603175.84 5.7301587.54 1.6888889 1.5 3.1968254 2.7 4.4031746 1.44 1.5079365 3.12 2.7142858 4.92 3.7396826 2.4 1.3269841 4.86 2.4730159 7.38 3.3777778 3.18 1.2063492 6.24 2.5936508 9.24 4.2222222 2.28 1.2666666 3.42 2.9555555 3.42 5.0666666.06 1.3873016-.42 2.7746032-1.44 3.8-1.56 1.6285715-4.38 2.352381-8.58 2.352381-2.7-.0603175-5.34-.4825397-7.92-1.3873016-2.34-.784127-4.56-1.8698413-6.66-3.2571428-.66-.4222223-1.5-.2412699-1.92.4222222v.0603174l-3.36 5.7301588c-.36.6031746-.18 1.3873016.42 1.8095238 2.64 1.8095238 5.52 3.2571428 8.52 4.3428571 3.54 1.3269841 7.26 2.0507937 11.04 2.0507937 2.58 0 5.16-.3015873 7.74-.8444445 2.28-.4825397 4.44-1.447619 6.42-2.7142857 1.86-1.2666667 3.42-3.015873 4.5-5.0063492 1.2-2.4126984 1.8-5.0666667 1.68-7.7809524.06-2.231746-.3-4.463492-1.14-6.5746031-.9-1.7492064-2.04-3.3777778-3.54-4.6444445z"/><path d="m237 17.3111111c-2.7 0-5.4.5428572-7.86 1.6888889-2.28 1.0253968-4.26 2.6539683-5.76 4.7047619l-.06-.0603175v-21.83492059c0-.78412698-.6-1.38730159-1.38-1.38730159-.12 0-.24 0-.36.06031746l-7.74 2.05079365c-.6.18095238-1.02.72380953-1.02 1.32698413v68.09841274c0 .7841269.6 1.3873015 1.38 1.3873015h7.74c.78 0 1.38-.6031746 1.38-1.3873015v-30.7015873c0-4.4634921.96-7.9619048 2.94-10.3746032s4.74-3.6793651 8.28-3.6793651 6.3 1.1460317 8.22 3.3777778c1.92 2.231746 2.94 6.1523809 2.94 11.7619047v29.6761905c0 .784127.6 1.3873016 1.38 1.3873016h7.74c.78 0 1.38-.6031746 1.38-1.3873016v-30.0984127c0-8.1428571-1.68-14.3555555-4.92-18.3968254-3.24-4.0412698-7.92-6.2126984-14.28-6.2126984z"/><path d="m335.22.72380952c-.36-.24126984-.78-.36190476-1.2-.24126984l-7.74 2.05079365c-.6.18095238-1.02.72380953-1.02 1.32698413v68.09841274c0 .7841269.6 1.3873015 1.38 1.3873015h7.74c.78 0 1.38-.6031746 1.38-1.3873015v-70.14920639c0-.42222222-.24-.84444444-.54-1.08571429z"/><path d="m359.46.72380952c-.36-.24126984-.78-.36190476-1.2-.24126984l-7.74 2.05079365c-.6.18095238-1.02.72380953-1.02 1.32698413v68.09841274c0 .7841269.6 1.3873015 1.38 1.3873015h7.74c.78 0 1.38-.6031746 1.38-1.3873015v-70.14920639c0-.42222222-.18-.84444444-.54-1.08571429z"/><path d="m313.98 59.1111111c-.12-.3015873-.3-.6031746-.6-.7238095l-4.38-1.9904762c-.54-.2412698-1.14-.0603175-1.5.4825397-2.88 4.8857143-5.7 6.9968254-10.62 8.263492-1.14.3015873-2.34.4825397-3.54.5428572-9 .3619047-12.84-7.6-14.46-14.3555556-.06-.3015873-.24-.5428571-.54-.7238095-.18-.1206349-.42-.1809524-.66-.1809524-.06 0-.18 0-.24.0603175l-4.86 1.2666667c-.6.1809523-.96.7841269-.84 1.447619 3.36 12.7269841 10.38 19.5428571 20.22 19.5428571 1.08.1809524 2.4 1.0253969 3.48 1.6888889 1.08.6634921 1.92 1.2063492 2.64 1.1460318l.3-.0603175c.84-.1809524 1.38-1.0857143 2.16-2.3523809.54-.9650794 1.2-1.8698413 1.92-2.6539683 4.8-1.9904762 8.1-5.0063492 11.28-10.4349206.24-.3015873.3-.6634921.24-.9650794z"/><path d="m311.58 36.2507937c.18-.3015874.24-.6031747.12-.904762-4.08-16.8285714-14.82-18.9396825-20.88-18.6984127-.78.0603175-1.56.120635-2.28.2412699h-.12c-.24 0-.48-.0603175-.72-.1206349-.6-1.3873016-1.38-2.6539683-2.28-3.8603175-1.98-2.4126984-4.38-4.46349206-7.14-6.03174602-.18-.12063492-.42-.18095238-.66-.18095238-.42 0-.84.24126984-1.02.66349206l-1.26 2.53333333c-.24.54285711-.12 1.14603171.3 1.50793651 1.02.784127 1.98 1.7492063 2.82 2.7746032.96 1.3269841 1.74 2.7746031 2.34 4.3428571-.3.2412699-.6.4825397-.96.6031746-6.3 2.2920635-16.26 8.8666667-11.82 27.2031746.06.3015873.24.6031746.54.7238095.18.120635.42.1809524.66.1809524.06 0 .18 0 .24-.0603174l41.34-10.3746032c.36-.0603175.6-.2412698.78-.5428571zm-24.36.7238095c-1.2.3015873-2.34-.4222222-2.64-1.568254-.3-1.2063492.42-2.3523809 1.56-2.6539682s2.34.4222222 2.64 1.5682539c.3 1.1460318-.42 2.352381-1.56 2.6539683zm1.98-7.8412699c-1.2.3015873-2.34-.4222222-2.64-1.5682539-.3-1.2063492.42-2.352381 1.56-2.6539683 1.2-.3015873 2.34.4222222 2.64 1.568254.3 1.1460317-.36 2.3523809-1.56 2.6539682zm5.4 5.9714286c-1.14.3015873-2.34-.4222222-2.64-1.6285714-.3-1.1460318.42-2.352381 1.62-2.6539683 1.14-.3015873 2.34.4222222 2.64 1.568254.24 1.2666667-.42 2.4126984-1.62 2.7142857zm1.98-7.8412698c-1.14.3015873-2.34-.4222223-2.64-1.6285715-.3-1.1460317.42-2.3523809 1.62-2.6539682 1.14-.3015873 2.34.4222222 2.64 1.5682539.3 1.2063493-.42 2.4126985-1.62 2.7142858zm5.4 5.9714285c-1.2.3015873-2.34-.4222222-2.64-1.6285714s.42-2.3523809 1.62-2.6539682 2.34.4222222 2.64 1.6285714c.3 1.2063492-.42 2.3523809-1.62 2.6539682z"/></g></g></svg>

<?xml version="1.0" encoding="UTF-8"?>
<svg width="640px" height="360px" viewBox="0 0 640 360" version="1.1" xmlns="http://www.w3.org/2000/svg" xmlns:xlink="http://www.w3.org/1999/xlink">
    <!-- Generator: Sketch 52.6 (67491) - http://www.bohemiancoding.com/sketch -->
    <title>nutshell/picture</title>
    <desc>Created with Sketch.</desc>
    <g id="nutshell/picture" stroke="none" stroke-width="1" fill="none" fill-rule="evenodd">
        <rect id="Rectangle" fill="#FE5003" x="0" y="0" width="640" height="360"></rect>
        <g id="logo-new-nutshell-wordmark" transform="translate(140.000000, 142.000000)" fill="#FFFFFF" fill-rule="nonzero">
            <path d="M53.58,0 L45.78,0 C45,0 44.4,0.603174603 44.4,1.38730159 L44.4,42.0412698 C44.4,43.7301587 44.4,45.4190476 44.46,47.1079365 C44.52,48.7968254 44.52,50.4253968 44.52,51.9333333 L44.52,55.2507937 L44.4,55.2507937 C44.16,54.768254 43.74,54.0444444 43.26,53.2 C42.78,52.3555556 42.24,51.4507937 41.7,50.4253968 C41.16,49.4 40.56,48.4349206 40.02,47.4698413 C39.48,46.5047619 38.94,45.6 38.4,44.815873 L11.46,0.663492063 C11.22,0.241269841 10.8,0 10.32,0 L1.38,0 C0.6,0 0,0.603174603 0,1.38730159 L0,71.9587302 C0,72.7428571 0.6,73.3460317 1.38,73.3460317 L9.12,73.3460317 C9.9,73.3460317 10.5,72.7428571 10.5,71.9587302 L10.5,31.3650794 C10.5,29.7968254 10.5,28.1079365 10.44,26.3587302 C10.38,24.6095238 10.38,23.1015873 10.38,21.6539683 L10.38,18.4571429 L10.5,18.3968254 C11.1,19.3619048 11.88,20.7492063 12.96,22.5587302 C14.04,24.4285714 15.06,26.0571429 15.9,27.384127 L44.22,72.6825397 C44.46,73.1047619 44.88,73.3460317 45.36,73.3460317 L53.58,73.3460317 C54.36,73.3460317 54.96,72.7428571 54.96,71.9587302 L54.96,1.38730159 C54.9,0.603174603 54.3,0 53.58,0 Z" id="Shape"></path>
            <path d="M109.68,18.5174603 L101.94,18.5174603 C101.16,18.5174603 100.56,19.1206349 100.56,19.9047619 C100.56,19.9047619 100.56,19.9047619 100.56,19.9047619 L100.56,50.6063492 C100.56,55.0698413 99.6,58.568254 97.62,60.9809524 C95.64,63.3936508 92.88,64.6603175 89.34,64.6603175 C85.8,64.6603175 83.04,63.5142857 81.06,61.2825397 C79.08,59.0507937 78.12,55.1301587 78.12,49.5206349 L78.12,19.9047619 C78.12,19.1206349 77.52,18.5174603 76.74,18.5174603 L69,18.5174603 C68.22,18.5174603 67.62,19.1206349 67.62,19.9047619 L67.62,49.9428571 C67.62,58.0857143 69.3,64.2984127 72.54,68.3396825 C75.78,72.3809524 80.52,74.4920635 86.88,74.4920635 C89.58,74.4920635 92.28,73.9492063 94.74,72.8031746 C97.08,71.7777778 99.06,70.1492063 100.5,68.0984127 L100.56,68.1587302 L100.56,71.8984127 C100.56,72.6825397 101.16,73.2857143 101.94,73.2857143 L109.68,73.2857143 C110.46,73.2857143 111.06,72.6825397 111.06,71.8984127 L111.06,19.9047619 C111.06,19.1206349 110.46,18.5174603 109.68,18.5174603 C109.68,18.5174603 109.68,18.5174603 109.68,18.5174603 Z" id="Shape"></path>
            <path d="M151.32,18.5174603 L139.56,18.5174603 C139.5,18.5174603 139.5,18.4571429 139.5,18.4571429 L139.5,1.80952381 C139.5,1.02539683 138.9,0.422222222 138.12,0.422222222 C138,0.422222222 137.88,0.422222222 137.76,0.482539683 L130.02,2.53333333 C129.42,2.71428571 129,3.25714286 129,3.86031746 L129,18.4571429 C129,18.5174603 128.94,18.5174603 128.94,18.5174603 L122.88,18.5174603 C122.1,18.5174603 121.5,19.1206349 121.5,19.9047619 C121.5,19.9047619 121.5,19.9047619 121.5,19.9047619 L121.5,26.9619048 C121.5,27.7460317 122.1,28.3492063 122.82,28.3492063 C122.82,28.3492063 122.82,28.3492063 122.82,28.3492063 L128.88,28.3492063 C128.94,28.3492063 128.94,28.4095238 128.94,28.4095238 L128.94,60.0761905 C128.94,64.9619048 130.08,68.6412698 132.24,70.9936508 C134.4,73.3460317 137.4,74.552381 141.24,74.552381 C143.22,74.552381 145.14,74.3111111 147.06,73.8285714 C148.44,73.4666667 149.76,72.984127 151.02,72.3206349 C151.44,72.0793651 151.68,71.7174603 151.74,71.2952381 L152.52,65.0222222 C152.64,64.2984127 152.1,63.5746032 151.32,63.5142857 C151.08,63.5142857 150.9,63.5142857 150.66,63.5746032 C150.24,63.7555556 149.82,63.8761905 149.34,64.0571429 C147.96,64.4793651 146.52,64.7206349 145.08,64.7206349 C143.04,64.7206349 141.6,64.2380952 140.7,63.3333333 C139.8,62.4285714 139.38,60.6793651 139.38,58.0857143 L139.38,28.4095238 C139.38,28.3492063 139.44,28.3492063 139.44,28.3492063 L151.2,28.3492063 C151.98,28.3492063 152.58,27.7460317 152.58,26.9619048 L152.58,19.9047619 C152.64,19.1206349 152.04,18.5174603 151.32,18.5174603 Z" id="Shape"></path>
            <path d="M198.42,46.8063492 C196.68,45.2984127 194.76,44.0920635 192.66,43.1269841 C190.38,42.0412698 187.74,40.8952381 184.68,39.6888889 C182.58,38.8444444 180.9,38.0603175 179.64,37.3968254 C178.56,36.8539683 177.54,36.1904762 176.58,35.4666667 C175.92,34.984127 175.38,34.3206349 175.02,33.5968254 C174.72,32.9936508 174.6,32.3301587 174.6,31.6666667 C174.6,30.2190476 175.26,28.831746 176.4,27.9873016 C177.6,27.0222222 179.46,26.5396825 182.16,26.5396825 C184.68,26.5396825 187.14,26.9015873 189.48,27.6857143 C191.4,28.3492063 193.26,29.2539683 195,30.4 C195.66,30.8222222 196.5,30.6412698 196.92,29.9777778 C196.92,29.9777778 196.92,29.9174603 196.98,29.9174603 L200.22,24.247619 C200.58,23.6444444 200.4,22.8603175 199.8,22.4380952 C197.52,20.9904762 195.06,19.784127 192.48,18.9396825 C189.24,17.8539683 185.88,17.3111111 182.52,17.3111111 C180,17.3111111 177.54,17.6126984 175.14,18.215873 C173.04,18.7587302 171.06,19.6634921 169.26,20.9904762 C167.64,22.1968254 166.32,23.7650794 165.48,25.5746032 C164.58,27.5650794 164.1,29.7365079 164.16,31.9079365 C164.1,33.8380952 164.4,35.768254 165,37.6380952 C165.54,39.3269841 166.5,40.8349206 167.7,42.0412698 C169.14,43.5492063 170.82,44.7555556 172.62,45.7809524 C175.02,47.1079365 177.48,48.2539683 180,49.1587302 C183.18,50.3650794 186.24,51.752381 189.24,53.3809524 C191.52,54.647619 192.66,56.3365079 192.66,58.447619 C192.72,59.8349206 192.24,61.2222222 191.22,62.247619 C189.66,63.8761905 186.84,64.6 182.64,64.6 C179.94,64.5396825 177.3,64.1174603 174.72,63.2126984 C172.38,62.4285714 170.16,61.3428571 168.06,59.9555556 C167.4,59.5333333 166.56,59.7142857 166.14,60.3777778 C166.14,60.3777778 166.14,60.4380952 166.14,60.4380952 L162.78,66.168254 C162.42,66.7714286 162.6,67.5555556 163.2,67.9777778 C165.84,69.7873016 168.72,71.2349206 171.72,72.3206349 C175.26,73.647619 178.98,74.3714286 182.76,74.3714286 C185.34,74.3714286 187.92,74.0698413 190.5,73.5269841 C192.78,73.0444444 194.94,72.0793651 196.92,70.8126984 C198.78,69.5460317 200.34,67.7968254 201.42,65.8063492 C202.62,63.3936508 203.22,60.7396825 203.1,58.0253968 C203.16,55.7936508 202.8,53.5619048 201.96,51.4507937 C201.06,49.7015873 199.92,48.0730159 198.42,46.8063492 Z" id="Shape"></path>
            <path d="M237,17.3111111 C234.3,17.3111111 231.6,17.8539683 229.14,19 C226.86,20.0253968 224.88,21.6539683 223.38,23.7047619 L223.32,23.6444444 L223.32,1.80952381 C223.32,1.02539683 222.72,0.422222222 221.94,0.422222222 C221.82,0.422222222 221.7,0.422222222 221.58,0.482539683 L213.84,2.53333333 C213.24,2.71428571 212.82,3.25714286 212.82,3.86031746 L212.82,71.9587302 C212.82,72.7428571 213.42,73.3460317 214.2,73.3460317 C214.2,73.3460317 214.2,73.3460317 214.2,73.3460317 L221.94,73.3460317 C222.72,73.3460317 223.32,72.7428571 223.32,71.9587302 L223.32,41.2571429 C223.32,36.7936508 224.28,33.2952381 226.26,30.8825397 C228.24,28.4698413 231,27.2031746 234.54,27.2031746 C238.08,27.2031746 240.84,28.3492063 242.76,30.5809524 C244.68,32.8126984 245.7,36.7333333 245.7,42.3428571 L245.7,72.0190476 C245.7,72.8031746 246.3,73.4063492 247.08,73.4063492 L254.82,73.4063492 C255.6,73.4063492 256.2,72.8031746 256.2,72.0190476 L256.2,41.9206349 C256.2,33.7777778 254.52,27.5650794 251.28,23.5238095 C248.04,19.4825397 243.36,17.3111111 237,17.3111111 Z" id="Shape"></path>
            <path d="M335.22,0.723809524 C334.86,0.482539683 334.44,0.361904762 334.02,0.482539683 L326.28,2.53333333 C325.68,2.71428571 325.26,3.25714286 325.26,3.86031746 L325.26,71.9587302 C325.26,72.7428571 325.86,73.3460317 326.64,73.3460317 L334.38,73.3460317 C335.16,73.3460317 335.76,72.7428571 335.76,71.9587302 C335.76,71.9587302 335.76,71.9587302 335.76,71.9587302 L335.76,1.80952381 C335.76,1.38730159 335.52,0.965079365 335.22,0.723809524 Z" id="Shape"></path>
            <path d="M359.46,0.723809524 C359.1,0.482539683 358.68,0.361904762 358.26,0.482539683 L350.52,2.53333333 C349.92,2.71428571 349.5,3.25714286 349.5,3.86031746 L349.5,71.9587302 C349.5,72.7428571 350.1,73.3460317 350.88,73.3460317 L358.62,73.3460317 C359.4,73.3460317 360,72.7428571 360,71.9587302 C360,71.9587302 360,71.9587302 360,71.9587302 L360,1.80952381 C360,1.38730159 359.82,0.965079365 359.46,0.723809524 Z" id="Shape"></path>
            <path d="M313.98,59.1111111 C313.86,58.8095238 313.68,58.5079365 313.38,58.3873016 L309,56.3968254 C308.46,56.1555556 307.86,56.3365079 307.5,56.8793651 C304.62,61.7650794 301.8,63.8761905 296.88,65.1428571 C295.74,65.4444444 294.54,65.6253968 293.34,65.6857143 C284.34,66.047619 280.5,58.0857143 278.88,51.3301587 C278.82,51.0285714 278.64,50.7873016 278.34,50.6063492 C278.16,50.4857143 277.92,50.4253968 277.68,50.4253968 C277.62,50.4253968 277.5,50.4253968 277.44,50.4857143 L272.58,51.752381 C271.98,51.9333333 271.62,52.5365079 271.74,53.2 C275.1,65.9269841 282.12,72.7428571 291.96,72.7428571 C293.04,72.9238095 294.36,73.768254 295.44,74.431746 C296.52,75.0952381 297.36,75.6380952 298.08,75.5777778 L298.38,75.5174603 C299.22,75.3365079 299.76,74.431746 300.54,73.1650794 C301.08,72.2 301.74,71.2952381 302.46,70.5111111 C307.26,68.5206349 310.56,65.5047619 313.74,60.0761905 C313.98,59.7746032 314.04,59.4126984 313.98,59.1111111 Z" id="Shape"></path>
            <path d="M311.58,36.2507937 C311.76,35.9492063 311.82,35.647619 311.7,35.3460317 C307.62,18.5174603 296.88,16.4063492 290.82,16.647619 C290.04,16.7079365 289.26,16.768254 288.54,16.8888889 L288.42,16.8888889 C288.18,16.8888889 287.94,16.8285714 287.7,16.768254 C287.1,15.3809524 286.32,14.1142857 285.42,12.9079365 C283.44,10.4952381 281.04,8.44444444 278.28,6.87619048 C278.1,6.75555556 277.86,6.6952381 277.62,6.6952381 C277.2,6.6952381 276.78,6.93650794 276.6,7.35873016 L275.34,9.89206349 C275.1,10.4349206 275.22,11.0380952 275.64,11.4 C276.66,12.184127 277.62,13.1492063 278.46,14.1746032 C279.42,15.5015873 280.2,16.9492063 280.8,18.5174603 C280.5,18.7587302 280.2,19 279.84,19.1206349 C273.54,21.4126984 263.58,27.9873016 268.02,46.3238095 C268.08,46.6253968 268.26,46.9269841 268.56,47.047619 C268.74,47.168254 268.98,47.2285714 269.22,47.2285714 C269.28,47.2285714 269.4,47.2285714 269.46,47.168254 L310.8,36.7936508 C311.16,36.7333333 311.4,36.552381 311.58,36.2507937 Z M287.22,36.9746032 C286.02,37.2761905 284.88,36.552381 284.58,35.4063492 C284.28,34.2 285,33.0539683 286.14,32.752381 C287.28,32.4507937 288.48,33.1746032 288.78,34.3206349 C288.78,34.3206349 288.78,34.3206349 288.78,34.3206349 C289.08,35.4666667 288.36,36.6730159 287.22,36.9746032 Z M289.2,29.1333333 C288,29.4349206 286.86,28.7111111 286.56,27.5650794 C286.26,26.3587302 286.98,25.2126984 288.12,24.9111111 C289.32,24.6095238 290.46,25.3333333 290.76,26.4793651 C290.76,26.4793651 290.76,26.4793651 290.76,26.4793651 C291.06,27.6253968 290.4,28.831746 289.2,29.1333333 Z M294.6,35.1047619 C293.46,35.4063492 292.26,34.6825397 291.96,33.4761905 C291.66,32.3301587 292.38,31.1238095 293.58,30.8222222 C294.72,30.5206349 295.92,31.2444444 296.22,32.3904762 C296.46,33.6571429 295.8,34.8031746 294.6,35.1047619 Z M296.58,27.2634921 C295.44,27.5650794 294.24,26.8412698 293.94,25.6349206 C293.64,24.4888889 294.36,23.2825397 295.56,22.9809524 C296.7,22.6793651 297.9,23.4031746 298.2,24.5492063 C298.5,25.7555556 297.78,26.9619048 296.58,27.2634921 Z M301.98,33.2349206 C300.78,33.5365079 299.64,32.8126984 299.34,31.6063492 C299.04,30.4 299.76,29.2539683 300.96,28.952381 C302.16,28.6507937 303.3,29.3746032 303.6,30.5809524 C303.6,30.5809524 303.6,30.5809524 303.6,30.5809524 C303.9,31.7873016 303.18,32.9333333 301.98,33.2349206 Z" id="Shape"></path>
        </g>
    </g>
</svg>
